X:401
T: "Die Flucht"
N: Z1081
O: Europa, Mitteleuropa, Deutschland, Baden
R: Romanze, Ballade, Abschieds - Lied
M: 3/8
L: 1/16
K: A
E2 | A3Bc2 | A3GA2 |
Bcd2c2 | B4
E2 | A3Bc2 | A3GA2 |
Bcd2c2 | B6 |
Bcdfed | dccBc2 |
Bdc2B2 | A4

@@@ Tune index: 10159
